assets/bank-tab/Asset/user.svg

<svg width="24" height="24" viewBox="0 0 24 24" fill="none" xmlns="http://www.w3.org/2000/svg">
<circle cx="12.0002" cy="6.49918" r="3.49918" fill="#475769"/>
<path d="M4.22698 18.4572C4.66706 14.4964 8.01489 11.5 12 11.5C15.9851 11.5 19.3329 14.4964 19.773 18.4572L19.7978 18.6801C19.7986 18.6873 19.7966 18.6693 19.7973 18.676C19.903 19.69 19.1643 20.6723 18.1608 20.8521C18.1541 20.8533 18.2326 20.8397 18.2012 20.8452C13.9048 21.585 10.0114 21.622 5.77355 20.8605C5.73781 20.8541 5.82717 20.8702 5.81834 20.8685C4.8309 20.6819 4.09806 19.7 4.20005 18.7003C4.20096 18.6914 4.19905 18.7085 4.19981 18.7017L4.22698 18.4572Z" fill="#475769"/>
</svg>

<svg xmlns="http://www.w3.org/2000/svg" width="24" height="24" fill="none" viewBox="0 0 24 24"><circle cx="12" cy="6.499" r="3.499" fill="#475769"/><path fill="#475769" d="M4.227 18.457a7.82 7.82 0 0 1 15.546 0l.025.223v-.004c.105 1.014-.634 1.996-1.637 2.176l.04-.007c-4.296.74-8.19.777-12.427.015-.036-.006.053.01.044.009-.987-.187-1.72-1.169-1.618-2.169v.002z"/></svg>
